assets/svg/settings.svg

<svg fill="none" height="25" viewBox="0 0 24 25" width="24" xmlns="http://www.w3.org/2000/svg"><g stroke="#000" stroke-linecap="round" stroke-linejoin="round" stroke-width="2"><path d="m12 15.5c1.6569 0 3-1.3431 3-3s-1.3431-3-3-3-3 1.3431-3 3 1.3431 3 3 3z"/><path d="m18.7273 15.2273c-.121.2742-.1571.5783-.1037.8732.0535.2949.1941.5671.4037.7813l.0545.0546c.1691.1688.3032.3693.3947.5901.0915.2207.1386.4573.1386.6962 0 .239-.0471.4756-.1386.6963s-.2256.4212-.3947.5901c-.1688.169-.3694.3031-.5901.3946s-.4573.1386-.6962.1386c-.239 0-.4756-.0471-.6963-.1386s-.4212-.2256-.5901-.3946l-.0546-.0546c-.2142-.2095-.4863-.3501-.7812-.4036s-.5991-.0174-.8733.1036c-.2689.1153-.4982.3066-.6597.5505s-.2482.5297-.2494.8223v.1545c0 .4822-.1915.9447-.5325 1.2857-.341.3409-.8035.5325-1.2857.5325s-.9446-.1916-1.2856-.5325c-.341-.341-.5326-.8035-.5326-1.2857v-.0818c-.007-.3009-.1044-.5927-.27949-.8375-.1751-.2449-.4198-.4313-.70228-.5352-.2742-.121-.57836-.1571-.87326-.1037-.29491.0535-.56703.1941-.78129.4037l-.05454.0545c-.16886.1691-.36939.3032-.59011.3947-.22073.0915-.45732.1386-.69626.1386-.23893 0-.47553-.0471-.69625-.1386-.22073-.0915-.42125-.2256-.59011-.3947-.16905-.1688-.30316-.3694-.39465-.5901-.0915-.2207-.1386-.4573-.1386-.6962 0-.239.0471-.4756.1386-.6963.09149-.2207.2256-.4212.39465-.5901l.05454-.0546c.20958-.2142.35017-.4863.40365-.7812.05347-.2949.01737-.5991-.10365-.8733-.11523-.2689-.30658-.4982-.55048-.6597s-.52971-.2482-.82224-.2494h-.15455c-.48221 0-.94467-.1915-1.28565-.5325-.34097-.341-.53253-.8035-.53253-1.2857s.19156-.9446.53253-1.2856c.34098-.341.80344-.5326 1.28565-.5326h.08182c.3009-.007.59273-.1044.83754-.2795.24482-.1751.43129-.4198.53519-.70227.12101-.2742.15711-.57836.10364-.87326-.05347-.29491-.19406-.56703-.40364-.78129l-.05455-.05454c-.16905-.16886-.30315-.36939-.39465-.59011-.0915-.22073-.1386-.45732-.1386-.69626 0-.23893.0471-.47553.1386-.69625.0915-.22073.2256-.42125.39465-.59011.16886-.16905.36939-.30316.59011-.39465.22072-.0915.45732-.1386.69626-.1386.23893 0 .47553.0471.69625.1386.22072.09149.42125.2256.59011.39465l.05454.05454c.21426.20958.48638.35017.78129.40365.2949.05347.59906.01737.87326-.10365h.07273c.26888-.11523.4982-.30658.65972-.55048.16155-.2439.24825-.52971.24935-.82224v-.15455c0-.48221.1916-.94467.5326-1.28565.3409-.34097.8034-.53253 1.2856-.53253s.9447.19156 1.2856.53253c.341.34098.5326.80344.5326 1.28565v.08182c.0011.29253.0878.57834.2494.82224.1615.2439.3908.43525.6597.55049.2742.12101.5783.15711.8732.10364s.5671-.19406.7813-.40364l.0546-.05455c.1688-.16905.3693-.30315.5901-.39465.2207-.0915.4573-.1386.6962-.1386.239 0 .4756.0471.6963.1386s.4212.2256.5901.39465c.169.16886.3031.36939.3946.59011s.1386.45732.1386.69626c0 .23893-.0471.47553-.1386.69625s-.2256.42125-.3946.59011l-.0546.05454c-.2095.21426-.3501.48638-.4036.78129-.0535.2949-.0174.59906.1036.87326v.07273c.1153.26887.3066.49817.5505.65967.2439.1616.5297.2483.8223.2494h.1545c.4822 0 .9447.1916 1.2857.5326.3409.3409.5325.8034.5325 1.2856s-.1916.9447-.5325 1.2856c-.341.341-.8035.5326-1.2857.5326h-.0818c-.2925.0011-.5783.0878-.8222.2494-.2439.1615-.4353.3908-.5505.6597z"/></g></svg>

<svg width="24" height="25" viewBox="0 0 24 25" fill="none" xmlns="http://www.w3.org/2000/svg">
<path d="M12 15.5C13.6569 15.5 15 14.1569 15 12.5C15 10.8431 13.6569 9.5 12 9.5C10.3431 9.5 9 10.8431 9 12.5C9 14.1569 10.3431 15.5 12 15.5Z" stroke="black" stroke-width="2" stroke-linecap="round" stroke-linejoin="round"/>
<path d="M18.7273 15.2273C18.6063 15.5015 18.5702 15.8056 18.6236 16.1005C18.6771 16.3954 18.8177 16.6676 19.0273 16.8818L19.0818 16.9364C19.2509 17.1052 19.385 17.3057 19.4765 17.5265C19.568 17.7472 19.6151 17.9838 19.6151 18.2227C19.6151 18.4617 19.568 18.6983 19.4765 18.919C19.385 19.1397 19.2509 19.3402 19.0818 19.5091C18.913 19.6781 18.7124 19.8122 18.4917 19.9037C18.271 19.9952 18.0344 20.0423 17.7955 20.0423C17.5565 20.0423 17.3199 19.9952 17.0992 19.9037C16.8785 19.8122 16.678 19.6781 16.5091 19.5091L16.4545 19.4545C16.2403 19.245 15.9682 19.1044 15.6733 19.0509C15.3784 18.9974 15.0742 19.0335 14.8 19.1545C14.5311 19.2698 14.3018 19.4611 14.1403 19.705C13.9788 19.9489 13.8921 20.2347 13.8909 20.5273V20.6818C13.8909 21.164 13.6994 21.6265 13.3584 21.9675C13.0174 22.3084 12.5549 22.5 12.0727 22.5C11.5905 22.5 11.1281 22.3084 10.7871 21.9675C10.4461 21.6265 10.2545 21.164 10.2545 20.6818V20.6C10.2475 20.2991 10.1501 20.0073 9.97501 19.7625C9.79991 19.5176 9.55521 19.3312 9.27273 19.2273C8.99853 19.1063 8.69437 19.0702 8.39947 19.1236C8.10456 19.1771 7.83244 19.3177 7.61818 19.5273L7.56364 19.5818C7.39478 19.7509 7.19425 19.885 6.97353 19.9765C6.7528 20.068 6.51621 20.1151 6.27727 20.1151C6.03834 20.1151 5.80174 20.068 5.58102 19.9765C5.36029 19.885 5.15977 19.7509 4.99091 19.5818C4.82186 19.413 4.68775 19.2124 4.59626 18.9917C4.50476 18.771 4.45766 18.5344 4.45766 18.2955C4.45766 18.0565 4.50476 17.8199 4.59626 17.5992C4.68775 17.3785 4.82186 17.178 4.99091 17.0091L5.04545 16.9545C5.25503 16.7403 5.39562 16.4682 5.4491 16.1733C5.50257 15.8784 5.46647 15.5742 5.34545 15.3C5.23022 15.0311 5.03887 14.8018 4.79497 14.6403C4.55107 14.4788 4.26526 14.3921 3.97273 14.3909H3.81818C3.33597 14.3909 2.87351 14.1994 2.53253 13.8584C2.19156 13.5174 2 13.0549 2 12.5727C2 12.0905 2.19156 11.6281 2.53253 11.2871C2.87351 10.9461 3.33597 10.7545 3.81818 10.7545H3.9C4.2009 10.7475 4.49273 10.6501 4.73754 10.475C4.98236 10.2999 5.16883 10.0552 5.27273 9.77273C5.39374 9.49853 5.42984 9.19437 5.37637 8.89947C5.3229 8.60456 5.18231 8.33244 4.97273 8.11818L4.91818 8.06364C4.74913 7.89478 4.61503 7.69425 4.52353 7.47353C4.43203 7.2528 4.38493 7.01621 4.38493 6.77727C4.38493 6.53834 4.43203 6.30174 4.52353 6.08102C4.61503 5.86029 4.74913 5.65977 4.91818 5.49091C5.08704 5.32186 5.28757 5.18775 5.50829 5.09626C5.72901 5.00476 5.96561 4.95766 6.20455 4.95766C6.44348 4.95766 6.68008 5.00476 6.9008 5.09626C7.12152 5.18775 7.32205 5.32186 7.49091 5.49091L7.54545 5.54545C7.75971 5.75503 8.03183 5.89562 8.32674 5.9491C8.62164 6.00257 8.9258 5.96647 9.2 5.84545H9.27273C9.54161 5.73022 9.77093 5.53887 9.93245 5.29497C10.094 5.05107 10.1807 4.76526 10.1818 4.47273V4.31818C10.1818 3.83597 10.3734 3.37351 10.7144 3.03253C11.0553 2.69156 11.5178 2.5 12 2.5C12.4822 2.5 12.9447 2.69156 13.2856 3.03253C13.6266 3.37351 13.8182 3.83597 13.8182 4.31818V4.4C13.8193 4.69253 13.906 4.97834 14.0676 5.22224C14.2291 5.46614 14.4584 5.65749 14.7273 5.77273C15.0015 5.89374 15.3056 5.92984 15.6005 5.87637C15.8954 5.8229 16.1676 5.68231 16.3818 5.47273L16.4364 5.41818C16.6052 5.24913 16.8057 5.11503 17.0265 5.02353C17.2472 4.93203 17.4838 4.88493 17.7227 4.88493C17.9617 4.88493 18.1983 4.93203 18.419 5.02353C18.6397 5.11503 18.8402 5.24913 19.0091 5.41818C19.1781 5.58704 19.3122 5.78757 19.4037 6.00829C19.4952 6.22901 19.5423 6.46561 19.5423 6.70455C19.5423 6.94348 19.4952 7.18008 19.4037 7.4008C19.3122 7.62152 19.1781 7.82205 19.0091 7.99091L18.9545 8.04545C18.745 8.25971 18.6044 8.53183 18.5509 8.82674C18.4974 9.12164 18.5335 9.4258 18.6545 9.7V9.77273C18.7698 10.0416 18.9611 10.2709 19.205 10.4324C19.4489 10.594 19.7347 10.6807 20.0273 10.6818H20.1818C20.664 10.6818 21.1265 10.8734 21.4675 11.2144C21.8084 11.5553 22 12.0178 22 12.5C22 12.9822 21.8084 13.4447 21.4675 13.7856C21.1265 14.1266 20.664 14.3182 20.1818 14.3182H20.1C19.8075 14.3193 19.5217 14.406 19.2778 14.5676C19.0339 14.7291 18.8425 14.9584 18.7273 15.2273Z" stroke="black" stroke-width="2" stroke-linecap="round" stroke-linejoin="round"/>
</svg>
